X:68
T:George White's Favorite (reel)  
B:CRE1.097 (Rogha Sheoirse de Faoite)
F:file ID: cre.1/068george_w
S:Sonny Brogan
M:C
L:1/8
Q:180
R:reel
K:G
Bd|eBB2 eBdB|AGAB GED2|GBB2 GBB2|(3ege dB A2Bd|
eBB2 eBdB|AGAB GED2|GABd gedB|AGAB G2:|
|:Bd|gede gaba|gfga gedB|dega bgag|eaag a2ga|
bgeg dged|gede gaba|gfgd (3efg dB|AGAB G2:|

%%%


